!!!COA:	Josquin des Prez
!!!CDT:	~1450-1521/08/27
!!!COM: Brumel, Antoine
!!!CDT:	~1460-~1512
!!!OTL:	Gloria laus et honor
!!!AGN:	Motet
!!!SCT:	NJE 26.5
!!!SCA:	New Josquin Edition 26.5
!!!voices:	4
**kern	**kern	**kern	**kern
*staff4	*staff3	*staff2	*staff1
*Ivox	*Ivox	*Ivox	*Ivox
*I"Bassus	*I"Tenor	*I"Altus	*I"Superius
*I'B	*I'T	*I'A	*I'S
*>[A,B,C,D,E,F,G]	*>[A,B,C,D,E,F,G]	*>[A,B,C,D,E,F,G]	*>[A,B,C,D,E,F,G]
*>A	*>A	*>A	*>A
*clefF4	*clefGv2	*clefGv2	*clefG2
*k[]	*k[]	*k[]	*k[]
*M2/1	*M2/1	*M2/1	*M2/1
*met(C|)	*met(C|)	*met(C|)	*met(C|)
*tb24	*tb24	*tb24	*tb24
!!section: Gloria, laus et honor
!!!OMD: Gloria, laus et honor
=1-	=1-	=1-	=1-
0r	0D	0r	0r
=2	=2	=2	=2
0r	0A	0r	0r
=3	=3	=3	=3
0r	0B	0r	0d
=4	=4	=4	=4
0AA	1A	0r	0a
.	[1A	.	.
=5	=5	=5	=5
0E	2A/]	0r	0b
.	4G/	.	.
.	4F/	.	.
.	1G	.	.
=6	=6	=6	=6
0F	1r	0A	1a
.	1A	.	[1a
=7	=7	=7	=7
1E	1B	0e	2a/]
.	.	.	4g/
.	.	.	4f/
[1E	1G	.	1g
=8	=8	=8	=8
2E\]	0d	0f	1a
4D\	.	.	.
4C/	.	.	.
1D	.	.	2a/
.	.	.	[2b\
=9	=9	=9	=9
0E	1B	1e	2b\]
.	.	.	4a/
.	.	.	4g/
.	[1c	[1e	1g
=10	=10	=10	=10
0F	1c]	2e\]	2r
.	.	4d\	2.cc\
.	.	4c\	.
.	1A	1d	.
.	.	.	4b\
.	.	.	2a/
=11	=11	=11	=11
0E	0B	0e	2g/
.	.	.	1a
.	.	.	2g#i/
=12	=12	=12	=12
0AA	0A	2r	1a
.	.	1e	.
.	.	.	2r
.	.	4f\	[2a/
.	.	4e\	.
=13	=13	=13	=13
0D	0r	4f\	4a/]
.	.	4e\	4g/
.	.	4d\	4f/
.	.	4c\	4e/
.	.	2.B\	1f
.	.	4c\	.
=14	=14	=14	=14
0C	0G	1c	0e
.	.	2r	.
.	.	2c\	.
=15	=15	=15	=15
0D	0F	2B\	1r
.	.	1A	.
.	.	.	1f
.	.	[2d\	.
=16	=16	=16	=16
0E	0G	2d\]	2e/
.	.	4c\	1g
.	.	4B\	.
.	.	2.c\	.
.	.	.	4f/
.	.	4d\	4e/
=17	=17	=17	=17
0D	0A	1.d	2f/
.	.	.	2.a/
.	.	.	4g/
.	.	4c\	2f/
.	.	4B\	.
=18	=18	=18	=18
0E	0G	1B	2e/
.	.	.	2.g/
.	.	2r	.
.	.	.	4f/
.	.	[2E/	4e/
.	.	.	4d/
=19	=19	=19	=19
0AA	0A	2E/]	1c
.	.	2F/	.
.	.	2E/	2r
.	.	[2F/	2c/
=20	=20	=20	=20
0BB	0D	2F/]	2.d/
.	.	2G/	.
.	.	.	4e/
.	.	2F/	2f/
.	.	2G/	4e/
.	.	.	4d/
=21	=21	=21	=21
0AA	0E	2.A/	2c/
.	.	.	1d
.	.	4B-i\	.
.	.	1A	.
.	.	.	2c#i/
=22	=22	=22	=22
0r	0D	2r	0d
.	.	2.F/	.
.	.	4G/	.
.	.	2A/	.
=23	=23	=23	=23
1D	0r	2B-i\	1r
.	.	1A	.
1D	.	.	1d
.	.	4B-i\	.
.	.	4A/	.
=24	=24	=24	=24
0GG	1G	2.B-i\	2.d/
.	.	4G/	8e/L
.	.	.	8f/J
.	1G	1B-i	1g
=25	=25	=25	=25
0AA	0C	1A	2.e/
.	.	.	8f/L
.	.	.	8g/J
.	.	1c	1a
=26	=26	=26	=26
0BB-i	0D	2r	2.f/
.	.	2.B-\	.
.	.	.	8g/L
.	.	.	8a/J
.	.	.	1b-i
.	.	4c\	.
.	.	2d\	.
=27	=27	=27	=27
0C	0E	1c	2.g/
.	.	.	8a/L
.	.	.	8b/J
.	.	1e	1cc
=28	=28	=28	=28
0D	0F	2.d\	2b\
.	.	.	2.a/
.	.	4c\	.
.	.	2A/	.
.	.	.	4g/
.	.	2B\	[2f/
=29	=29	=29	=29
0C	0G	0c	2f/]
.	.	.	4e/
.	.	.	4d/
.	.	.	1e
=30	=30	=30	=30
1D	[0F	2.A/	2.f/
.	.	4B\	4g/
2r	.	2c\	2a/
[2D\	.	[2d\	[2f/
=31	=31	=31	=31
2D\]	0F_	2d\]	2f/]
2E\	.	4c\	4e/
.	.	4B\	4d/
1F	.	2.A/	1c
.	.	4B-\	.
=32	=32	=32	=32
0BB-	0F]	0B-i	0d
=33	=33	=33	=33
1D	[0F	1A	0r
2D\	.	2A/	.
[2D\	.	[2F/	.
=34	=34	=34	=34
4D\]	0F]	4F/]	0r
4C/	.	4E/	.
4BB/	.	4D/	.
4AA/	.	4C/	.
1BB	.	1D	.
=35	=35	=35	=35
0AA	[0A	1E	1a
.	.	2r	2a/
.	.	2e\	[2a/
=36	=36	=36	=36
0D	0A]	2f\	4a/]
.	.	.	4g/
.	.	1d	4f/
.	.	.	4e/
.	.	.	1f
.	.	4c\	.
.	.	4B\	.
=37	=37	=37	=37
0AA	[0A	1c	0e
.	.	1r	.
=38	=38	=38	=38
[0D	0A]	1A	1f
.	.	2A/	2f/
.	.	[2A/	[2f/
=39	=39	=39	=39
0D]	0A	4A/]	4f/]
.	.	4G/	4e/
.	.	4F/	4d/
.	.	4E/	4c/
.	.	1F	1d
=40	=40	=40	=40
0AA	0A	1E	1c
.	.	2r	2r
.	.	[2c\	[2f/
=41	=41	=41	=41
0C	0G	2c\]	2f/]
.	.	4B\	4e/
.	.	4A/	4d/
.	.	1c	1e
=42	=42	=42	=42
0D	0F	1A	2d/
.	.	.	1f
.	.	1B	.
.	.	.	2g/
=43	=43	=43	=43
1C	0G	1c	1e
2r	.	2d\	1r
[2G\	.	[2e\	.
=44	=44	=44	=44
4G\]	0G	4e\]	1.g
4F\	.	4d\	.
4E\	.	4c\	.
4D\	.	4B\	.
1E	.	1c	.
.	.	.	4f/
.	.	.	4e/
=45	=45	=45	=45
0D	1.A	1.d	1.f
.	2G/	4c\	2e/
.	.	4B\	.
=46	=46	=46	=46
1D	1F	[0A	1d
1AA	1E	.	1c
=47	=47	=47	=47
1D	1F	1A]	1.d
1GG	1G	1B	.
.	.	.	2e/
=48	=48	=48	=48
1AA	2r	0A	1c
.	1E	.	.
2AA/	.	.	2c/
[2D\	[2F/	.	[2d/
=49	=49	=49	=49
2D\]	2F/]	2B\	2d/]
1C	1G	2.c\	1e
.	.	4B\	.
[2D\	2F/	[2A/	[2f/
=50	=50	=50	=50
2D\]	1D	4A/]	4f/]
.	.	4G/	4e/
2BB-/	.	4G/	1d
.	.	4F/	.
1AA	1E	1A	.
.	.	.	2c#i/
=51	=51	=51	=51
2r	1.D	2.F/	0d
2.F\	.	.	.
.	.	4E/	.
.	.	4D/	.
4E\	.	4C/	.
4D\	[2F/	2BB-/	.
4C/	.	.	.
=52	=52	=52	=52
2BB-i/	2F/]	2r	0r
2D\	4E/	1B-	.
.	4D/	.	.
1C	1E	.	.
.	.	2A/	.
=53	=53	=53	=53
0BB-i	1F	0B-i	[0d
.	1r	.	.
=54	=54	=54	=54
0D	0F	[0A	0d]
=55	=55	=55	=55
0D	0F	0A_	0d
=56	=56	=56	=56
0AA	0E	0A]	0c
=57	=57	=57	=57
0D	2.F/	1A	[0d
.	4E/	.	.
.	4F/	2A/	.
.	4G/	.	.
.	[2F/	[2B-i\	.
=58	=58	=58	=58
0BB-i	4F/]	4B-\]	0d]
.	4E/	4A/	.
.	4D/	4G/	.
.	4C/	4F/	.
.	1D	1G	.
=59	=59	=59	=59
[0AA	2.E/	1A	[0c
.	4F/	.	.
.	2G/	2r	.
.	[2A/	2A/	.
=60	=60	=60	=60
0AA]	2A/]	2c\	0c]
.	4G/	2d\	.
.	4F/	.	.
.	1E	1e	.
=61	=61	=61	=61
0D	1F	2d\	0d
.	.	1f	.
.	2G/	.	.
.	[2A/	4e\	.
.	.	4d\	.
=62	=62	=62	=62
0AA	2A/]	3%2c#i	0e
.	4G/	.	.
.	.	3d\	.
.	4F/	.	.
.	2.A/	3%2c#i	.
.	.	3B\	.
.	4G/	.	.
=63	=63	=63	=63
0D	0A	1.d	0f
.	.	4c\	.
.	.	4B\	.
=64	=64	=64	=64
1D	1F	1A	1f
[1C	[1G	[1c	[1e
=65	=65	=65	=65
1C]	1G]	2c\]	2e/]
.	.	2B\	2d/
1D	1F	2A/	[1d
.	.	2G/	.
=66	=66	=66	=66
0AA	0E	0A	2d/]
.	.	.	4c#i/
.	.	.	4B/
.	.	.	1c#i
=67	=67	=67	=67
[0Dl	[0Dl	0B-i	[0dl
=68	=68	=68	=68
0D]	0D]	0Al	0d]
!!LO:LB:i:g=z
=69||	=69||	=69||	=69||
*>B	*>B	*>B	*>B
*clefF4	*clefGv2	*clefGv2	*clefG2
*k[]	*k[]	*k[]	*k[]
*M2/1	*M2/1	*M2/1	*M2/1
*met(C|)	*met(C|)	*met(C|)	*met(C|)
!!section: Israel es tu Rex
!!!OMD: Israel es tu Rex
1.A	0r	0r	[0a
[2F\	.	.	.
=70	=70	=70	=70
2F\]	1.A	1r	0a_
4E\	.	.	.
4D\	.	.	.
2C/	.	1r	.
[2D\	[2F/	.	.
=71	=71	=71	=71
2D\]	2F/]	1.A	0a_
4C/	4E/	.	.
4BB/	4D/	.	.
2AA/	2C/	.	.
[2D\	[2D/	[2F/	.
=72	=72	=72	=72
2D\]	2D/]	2F/]	0a_
2D\	4C/	4E/	.
.	4BB/	4D/	.
2E\	2AA/	2C/	.
[2F\	2r	[2D/	.
=73	=73	=73	=73
4F\]	2.D/	4D/]	0a_
4G\	.	4E/	.
2A\	.	4F/	.
.	4E/	4G/	.
2D\	4F/	2.A/	.
.	4G/	.	.
[2F\	4A/	.	.
.	4F/	4B\	.
=74	=74	=74	=74
4F\]	2f\	4c\	0a]
4E\	.	4d\	.
2C/	2e\	2e\	.
1D	2.d\	1f	.
.	4c\	.	.
=75	=75	=75	=75
[0E	1.B	[0e	[0g
.	[2c\	.	.
=76	=76	=76	=76
0E_	4c\]	0e_	0g_
.	4B\	.	.
.	4c\	.	.
.	4d\	.	.
.	2B\	.	.
.	[2c\	.	.
=77	=77	=77	=77
0E]	2c\]	0e]	0g]
.	4B\	.	.
.	4A/	.	.
.	1B	.	.
=78	=78	=78	=78
1F	1.A	0c	[0a
2r	.	.	.
[2F\	2B\	.	.
=79	=79	=79	=79
2F\]	1c	0f	0a]
2E\	.	.	.
1D	1d	.	.
=80	=80	=80	=80
1C	2.G/	2.e\	0cc
.	4F/	4d\	.
2r	4E/	4c\	.
.	4D/	4B\	.
[2C/	[2E/	[2c\	.
=81	=81	=81	=81
2C/]	4E/]	4c\]	0cc
.	4D/	4B\	.
2BB/	4C/	4A/	.
.	4BB/	4G/	.
1AA	1C	2.F#i/	.
.	.	4E/	.
=82	=82	=82	=82
1GG	1.D	1G	1b
1r	.	[1d	[1a
.	2E/	.	.
=83	=83	=83	=83
1D	1F	2d\]	2a/]
.	.	2B\	2g/
1E	1G	1c	[1g
=84	=84	=84	=84
0D	0A	0d	1g]
.	.	.	1f#i
=85	=85	=85	=85
2.GG/	0G	2.B\	[0g
4AA/	.	4c\	.
2BB/	.	2d\	.
[2C/	.	[2e\	.
=86	=86	=86	=86
4C/]	1r	4e\]	0g]
4D\	.	4f\	.
2.E\	.	2.g\	.
.	1G	.	.
4F\	.	4f\	.
2G\	.	2e\	.
=87	=87	=87	=87
2F\	2A/	2d\	0r
2G\	2B\	1g	.
1A	1c	.	.
.	.	2f#i\	.
=88	=88	=88	=88
[0G	1.d	3%4g	[0g
.	.	[3%2d	.
.	[2B\	.	.
=89	=89	=89	=89
0G]	2B\]	3%2d]	0g]
.	4A/	.	.
.	.	3%4e	.
.	4G/	.	.
.	1B	.	.
=90	=90	=90	=90
[0F	1.c	1f	[0a
.	.	2r	.
.	[2A/	[2f\	.
=91	=91	=91	=91
0F]	2A/]	2f\]	0a]
.	4G/	4e\	.
.	4F/	4d\	.
.	1A	1f	.
=92	=92	=92	=92
[0C	[0G	1e	0cc
.	.	2r	.
.	.	[2e\	.
=93	=93	=93	=93
0C]	0G]	2e\]	0cc
.	.	4d\	.
.	.	4c\	.
.	.	1e	.
=94	=94	=94	=94
1GG	1G	1.d	0b
1G	1G	.	.
.	.	4c\	.
.	.	4B\	.
=95	=95	=95	=95
1F	1A	1f	[0cc
2G\	2B\	1r	.
[2A\	[2c\	.	.
=96	=96	=96	=96
2A\]	2c\]	1.e	0cc]
4G\	4B\	.	.
4F\	4A/	.	.
1E	1G	.	.
.	.	4f\	.
.	.	4e\	.
=97	=97	=97	=97
[0D	[0A	1.f	[0dd
.	.	[2g\	.
=98	=98	=98	=98
0D]	0A]	2g\]	0dd_
.	.	4f#i\	.
.	.	4e\	.
.	.	1f#i	.
=99	=99	=99	=99
0GG	0B	0g	0dd]
=100	=100	=100	=100
0AA	0A	1.e	0cc
.	.	4d\	.
.	.	4c\	.
=101	=101	=101	=101
1r	0G	1d	0b
1E	.	1e	.
=102	=102	=102	=102
0F	1r	1c	0a
.	1A	1d	.
=103	=103	=103	=103
[0E	[0B	[0e	[0g
=104	=104	=104	=104
0E]	0B]	0e]	0g]
=105	=105	=105	=105
0F	0A	1c	0a
.	.	2r	.
.	.	2c\	.
=106	=106	=106	=106
0D	1r	2d\	[0al
.	.	1f	.
.	1d	.	.
.	.	4e\	.
.	.	4d\	.
=107	=107	=107	=107
0AAl	0cl	0el	0a]
!!LO:LB:i:g=z
=108||	=108||	=108||	=108||
*>C	*>C	*>C	*>C
*clefF4	*clefGv2	*clefGv2	*clefG2
*k[]	*k[]	*k[]	*k[]
*M2/1	*M2/1	*M2/1	*M2/1
*met(C|)	*met(C|)	*met(C|)	*met(C|)
!!section: Coetus in excelsis te laudat
!!!OMD: Coetus in excelsis te laudat
1r	0r	2.A/	[0a
.	.	4B\	.
2.AA/	.	2c\	.
.	.	2d\	.
4BB/	.	.	.
=109	=109	=109	=109
2C/	2.A/	2A/	0a_
2D\	.	2d\	.
.	4B\	.	.
2AA/	2c\	2e\	.
[2D\	2d\	[2f\	.
=110	=110	=110	=110
4D\]	2A/	4f\]	0a_
4E\	.	4e\	.
2.F\	2.d\	2d\	.
.	.	2c\	.
4E\	4e\	.	.
2D\	[2f\	2d\	.
=111	=111	=111	=111
2C/	4f\]	2A/	0a]
.	4e\	.	.
2D\	2d\	2d\	.
2AA/	2c\	2e\	.
[2D\	[2d\	[2f\	.
=112	=112	=112	=112
2D\]	2d\]	2f\]	0a
2E\	4c\	2.e\	.
.	4B\	.	.
1F	1A	.	.
.	.	4d\	.
.	.	4d\	.
.	.	4c\	.
=113	=113	=113	=113
[0E	1B	[0e	[0g
.	1c	.	.
=114	=114	=114	=114
0E]	2.B\	0e]	0g]
.	4A/	.	.
.	1B	.	.
=115	=115	=115	=115
1.F	2.A/	1c	0a
.	4B\	.	.
.	2c\	1f	.
4E\	2d\	.	.
4D\	.	.	.
=116	=116	=116	=116
[0C	1.e	1g	0cc
.	.	2r	.
.	4d\	[2g\	.
.	4c\	.	.
=117	=117	=117	=117
0C]	0e	2g\]	1.cc
.	.	4f\	.
.	.	4e\	.
.	.	[1g	.
.	.	.	4b\
.	.	.	4a/
=118	=118	=118	=118
1C	1e	2g\]	1cc
.	.	4f\	.
.	.	4e\	.
1D	2.d\	2f\	2b\
.	.	[2d\	[2a/
.	4c\	.	.
=119	=119	=119	=119
1E	4B\	2d\]	4a/]
.	4A/	.	4g/
.	2G/	2c\	1g
1D	1A	1d	.
.	.	.	2f#i/
=120	=120	=120	=120
1GG	[0G	2r	[0g
.	.	1d	.
2GG/	.	.	.
[2C/	.	[2e\	.
=121	=121	=121	=121
4C/]	0G]	4e\]	0g]
4D\	.	4d\	.
2E\	.	2B\	.
2C/	.	2c\	.
[2G\	.	2d\	.
=122	=122	=122	=122
4G\]	0r	2.G/	0r
4A\	.	.	.
2B\	.	.	.
.	.	4A/	.
2G\	.	4B\	.
.	.	4c\	.
[2B\	.	[2d\	.
=123	=123	=123	=123
4B\]	1r	2d\]	0g
4A\	.	.	.
4G\	.	2.B\	.
4F\	.	.	.
1G	1d	.	.
.	.	4c\	.
.	.	4d\	.
.	.	4e\	.
=124	=124	=124	=124
[0D	[0d	[0f	[0a
=125	=125	=125	=125
0D]	0d]	0f]	0a]
=126	=126	=126	=126
[0AA	1c	0e	[0cc
.	[1A	.	.
=127	=127	=127	=127
1AA]	1A]	1f	1cc]
1GG	1B	1g	1b
=128	=128	=128	=128
0AA	0A	0e	0cc
=129	=129	=129	=129
1BB-	1F	2.d\	[0dd
.	.	4c\	.
2GG/	2r	4B\	.
.	.	4A/	.
[2D\	[2F/	[2B\	.
=130	=130	=130	=130
2D\]	2F/]	4B\]	0dd]
.	.	4A/	.
2C/	2E/	1A	.
1BB	1D	.	.
.	.	2G#i/	.
=131	=131	=131	=131
1AA	1E	2.A/	[0cc
.	.	4B\	.
2FF/	2r	2c\	.
[2C/	[2E/	[2A/	.
=132	=132	=132	=132
2C/]	2E/]	4A/]	0cc]
.	.	4G/	.
2BB/	2D/	1G	.
1AA	1C	.	.
.	.	2F#i/	.
=133	=133	=133	=133
1GG	1D	2G/	[0b
.	.	2d\	.
2G\	2r	2e\	.
[2B\	[2d\	[2g\	.
=134	=134	=134	=134
2B\]	2d\]	4g\]	0b]
.	.	4f\	.
2A\	2c\	1f	.
1G	1B	.	.
.	.	2e\	.
=135	=135	=135	=135
1F	1c	2.f\	[0a
.	.	4g\	.
2D\	2r	2a\	.
[2A\	[2c\	[2f\	.
=136	=136	=136	=136
2A\]	2c\]	4f\]	0a]
.	.	4e\	.
2G\	2B\	1e	.
1F	1A	.	.
.	.	2d\	.
=137	=137	=137	=137
0E	0B	[0e	[0g
=138	=138	=138	=138
1.C	0c	0e]	0g_
2D\	.	.	.
=139	=139	=139	=139
[0E	1B	2.e\	0g_
.	.	4f\	.
.	2.e\	2g\	.
.	.	[2e\	.
.	4f\	.	.
=140	=140	=140	=140
0E_	2g\	4e\]	0g_
.	.	4d\	.
.	2.e\	2c\	.
.	.	2B\	.
.	4d\	.	.
.	2c\	[2e\	.
=141	=141	=141	=141
0E_	2B\	4e\]	0g_
.	.	4d\	.
.	2.e\	2c\	.
.	.	2B\	.
.	4d\	.	.
.	2c\	[2e\	.
=142	=142	=142	=142
0E]	2B\	2e\]	0g]
.	2A/	2d\	.
.	1B	1e	.
=143	=143	=143	=143
[0AA	0A	1c	[0a
.	.	2d\	.
.	.	[2e\	.
=144	=144	=144	=144
0AA]	1r	4e\]	0a_
.	.	4d\	.
.	.	4c\	.
.	.	4B\	.
.	1E	1c	.
=145	=145	=145	=145
[0D	1F	1d	0a_
.	2G/	2e\	.
.	[2A/	[2f\	.
=146	=146	=146	=146
0D]	4A/]	4f\]	0a]
.	4G/	4e\	.
.	4F/	4d\	.
.	4E/	4c\	.
.	1F	1d	.
=147	=147	=147	=147
0AAl	0El	0cl	0al
!!LO:LB:i:g=z
=148||	=148||	=148||	=148||
*>D	*>D	*>D	*>D
*clefF4	*clefGv2	*clefGv2	*clefG2
*k[]	*k[]	*k[]	*k[]
*M2/1	*M2/1	*M2/1	*M2/1
*met(C|)	*met(C|)	*met(C|)	*met(C|)
!!section: Plebs Hebraea tibi
!!!OMD: Plebs Hebraea tibi
1.A	[0A	1r	0r
.	.	[1A	.
[2c\	.	.	.
=149	=149	=149	=149
4c\]	0A]	2A/]	0r
4B\	.	.	.
4A\	.	2.c\	.
4G\	.	.	.
2F\	.	.	.
.	.	4B\	.
[2A\	.	4A/	.
.	.	4G/	.
=150	=150	=150	=150
4A\]	[0A	2F/	0r
4G\	.	.	.
4F\	.	2.A/	.
4E\	.	.	.
2D\	.	.	.
.	.	4G/	.
[2F\	.	4F/	.
.	.	4E/	.
=151	=151	=151	=151
4F\]	0A_	2D/	0r
4E\	.	.	.
4D\	.	2.F/	.
4C/	.	.	.
1F	.	.	.
.	.	4E/	.
.	.	4D/	.
.	.	4C/	.
=152	=152	=152	=152
2r	0A]	2.F/	0r
2.FF/	.	.	.
.	.	4G/	.
.	.	4A/	.
4GG/	.	4B\	.
4AA/	.	[2c\	.
4BB/	.	.	.
=153	=153	=153	=153
2.C/	[0G	2c\]	0r
.	.	2C/	.
4D\	.	.	.
2BB/	.	2D/	.
[2C/	.	[2E/	.
=154	=154	=154	=154
2C/]	0G]	2E/]	0r
4BB/	.	4D/	.
4AA/	.	4C/	.
1BB	.	1D	.
=155	=155	=155	=155
1AA	0A	1E	0r
[1D	.	1r	.
=156	=156	=156	=156
2D\]	1.A	0r	0r
2E\	.	.	.
[1F	.	.	.
.	2B\	.	.
=157	=157	=157	=157
2F\]	1.c	0r	0r
4E\	.	.	.
4D\	.	.	.
1C	.	.	.
.	4B\	.	.
.	4A/	.	.
=158	=158	=158	=158
2r	1G	0r	0r
2.C/	.	.	.
.	2r	.	.
4D\	.	.	.
4E\	[2G/	.	.
4F\	.	.	.
=159	=159	=159	=159
1G	4G/]	0r	0r
.	4A/	.	.
.	4B\	.	.
.	4c\	.	.
2r	1d	.	.
[2D\	.	.	.
=160	=160	=160	=160
4D\]	2r	0r	0r
4E\	.	.	.
2.F\	2.A/	.	.
4E\	4B\	.	.
[2C/	[2c\	.	.
=161	=161	=161	=161
4C/]	4c\]	0r	0r
4D\	4B\	.	.
2E\	2G/	.	.
2D\	2B\	.	.
2C/	[2A/	.	.
=162	=162	=162	=162
2.D\	4A/]	0r	0r
.	4G/	.	.
.	4F/	.	.
4C/	4E/	.	.
4BB/	2D/	.	.
4AA/	.	.	.
2GG/	[2G/	.	.
=163	=163	=163	=163
2BB/	2G/]	1r	0r
2C/	4F#i/	.	.
.	4E/	.	.
1AA	1F#i	1C	.
=164	=164	=164	=164
0GG	0G	2D/	0r
.	.	2E/	.
.	.	2D/	.
.	.	[2G/	.
=165	=165	=165	=165
2.GG/	0r	4G/]	0r
.	.	4A/	.
.	.	4B\	.
4AA/	.	4c\	.
4BB/	.	2d\	.
4C/	.	.	.
[2D\	.	[2B\	.
=166	=166	=166	=166
4D\]	1r	4B\]	0r
4AA/	.	4A/	.
2C/	.	2A/	.
1BB	1G	2r	.
.	.	2D/	.
=167	=167	=167	=167
0AA	[0A	2E/	0r
.	.	2F/	.
.	.	1E	.
=168	=168	=168	=168
2r	0A_	1r	0r
2.AA/	.	.	.
.	.	2.A/	.
4BB/	.	.	.
4C/	.	.	.
4D\	.	4B\	.
=169	=169	=169	=169
2AA/	0A_	4c\	0r
.	.	4d\	.
2.D\	.	2A/	.
.	.	2.D/	.
4E\	.	.	.
4F\	.	.	.
4G\	.	4E/	.
=170	=170	=170	=170
2D\	0A]	4F/	0r
.	.	4G/	.
2.F\	.	2D/	.
.	.	2.F/	.
4G\	.	.	.
4A\	.	.	.
4B-i\	.	4G/	.
=171	=171	=171	=171
2F\	[0A	4A/	0r
.	.	4B-i\	.
2.A\	.	2F/	.
.	.	2.A/	.
4B\	.	.	.
4c\	.	.	.
4d\	.	4Bni\	.
=172	=172	=172	=172
2A\	0A_	4c\	0r
.	.	4d\	.
1c	.	2A/	.
.	.	1c	.
[2F\	.	.	.
=173	=173	=173	=173
4F\]	0A_	2.F/	0r
4G\	.	.	.
1A	.	.	.
.	.	4G/	.
.	.	1A	.
[2D\	.	.	.
=174	=174	=174	=174
4D\]	0A]	2.D/	0r
4E\	.	.	.
1F	.	.	.
.	.	4E/	.
.	.	2F/	.
4E\	.	4G/	.
4D\	.	4F/	.
=175	=175	=175	=175
4C/	0c	4E/	0r
4BB/	.	4D/	.
4AA/	.	1G	.
4GG/	.	.	.
1AA	.	.	.
.	.	2F#i/	.
=176	=176	=176	=176
1GG	1.B	1G	0r
2G\	.	2r	.
2F\	[2d\	[2A/	.
=177	=177	=177	=177
2D\	2d\]	2A/]	0r
2F\	4c#i\	4G/	.
.	4B\	4F/	.
1E	1c#i	1G	.
=178	=178	=178	=178
1D	1d	1A	0r
1E	2c\	2r	.
.	[2B\	2G/	.
=179	=179	=179	=179
2C/	4B\]	2E/	0r
.	4A/	.	.
2D\	1A	2F/	.
1BB	.	1D	.
.	2G#i/	.	.
=180	=180	=180	=180
2AA/	2A/	2E/	0r
2D\	2B\	2F/	.
2E\	2c\	2G/	.
2C/	2A/	2E/	.
=181	=181	=181	=181
2D\	2B\	2F/	0r
2BB/	2G/	2D/	.
2AA/	2A/	2E/	.
2D\	2B\	2F/	.
=182	=182	=182	=182
2E\	2c\	2G/	0r
2F\	2d\	2A/	.
2D\	2B\	2F/	.
2E\	2c\	2G/	.
=183	=183	=183	=183
2C/	2A/	2E/	0r
2D\	2B\	2F/	.
2BB/	2G/	2D/	.
2AA/	2A/	2E/	.
=184	=184	=184	=184
2D\	2B\	2F/	0r
2E\	2c\	2G/	.
2F\	2d\	2A/	.
2G\	2e\	2B\	.
=185	=185	=185	=185
2E\	2c\	2G/	0r
2F\	2d\	2A/	.
2D\	2B\	2F/	.
2E\	2c\	2G/	.
=186	=186	=186	=186
2C/	2A/	2E/	0r
2D\	2B\	2F/	.
2BB/	2G/	2D/	.
2C/	2A/	2E/	.
=187	=187	=187	=187
2D\	2B\	2F/	0r
2.E\	2.c\	2.G/	.
4D\	4B\	4F/	.
2C/	2A/	2E/	.
=188	=188	=188	=188
2BB/	2G/	2D/	0r
2AA/	2.A/	2.E/	.
1BB	.	.	.
.	4G#i/	4D/	.
.	4G#i/	4D/	.
.	4F#i/	4C/	.
=189	=189	=189	=189
0AAl	0Al	0El	0r
!!LO:LB:i:g=z
=190||	=190||	=190||	=190||
*>E	*>E	*>E	*>E
*clefF4	*clefGv2	*clefGv2	*clefG2
*k[]	*k[]	*k[]	*k[]
*M2/1	*M2/1	*M2/1	*M2/1
*met(O3)	*met(O3)	*met(O3)	*met(O3)
!!section: Hi tibi passuro solvebant
!!!OMD: Hi tibi passuro solvebant
!!LO:TX:Z=8:t=O3 mensuration
0AA	[0A	0E	[0a
=191.	=191.	=191.	=191.
1C	0A]	1E	0a]
1D	.	1F	.
=192.	=192.	=192.	=192.
0BB	0G	0D	0dd
=193	=193	=193	=193
[0AA	[0A	0E	0cc
=194.	=194.	=194.	=194.
1AA]	1A]	1E	1cc
[1D	[1A	[1F	[1a
=195.	=195.	=195.	=195.
0D]	1A]	2F/]	2a/]
.	.	2E/	2g/
.	1B	1F	1f
=196	=196	=196	=196
[0C	[0c	0G	1.e
.	.	.	2f/
=197.	=197.	=197.	=197.
1C]	0c_	1G	1g
[1F	.	1F	[1a
=198.	=198.	=198.	=198.
0F]	0c]	1.f	1a]
.	.	.	1a
.	.	2e\	.
=199	=199	=199	=199
1G	1B	1d	1g
1F	1c	[1f	[1a
=200.	=200.	=200.	=200.
1D	1d	2f\]	2a/]
.	.	2e\	2g/
1E	1G	1c	1g
=201.	=201.	=201.	=201.
0D	1.A	0d	1.f
.	2B\	.	2g/
=202	=202	=202	=202
1r	1c	1e	1e
1D	1d	1f	[1a
=203.	=203.	=203.	=203.
0E	0G	1g	2a/]
.	.	.	2g/
.	.	1c	[1g
=204.	=204.	=204.	=204.
0D	0A	0d	1g]
.	.	.	1f#i
=205	=205	=205	=205
0E	0G	0B	0g
=206.	=206.	=206.	=206.
1.C	0c	1.e	0r
4BB/	.	4d\	.
4AA/	.	4c\	.
=207.	=207.	=207.	=207.
0GG	1B	1.d	0g
.	[1d	.	.
.	.	2e\	.
=208	=208	=208	=208
0D	2d\]	0f	0a
.	2c\	.	.
.	1d	.	.
=209.	=209.	=209.	=209.
0C	0G	0e	0cc
=210.	=210.	=210.	=210.
1GG	1G	1.d	0b
1G	1B	.	.
.	.	4e\	.
.	.	4d\	.
=211	=211	=211	=211
1F	1A	2.f\	0cc
.	.	4e\	.
1E	1G	[1g	.
=212.	=212.	=212.	=212.
0D	0A	2g\]	[0dd
.	.	4f#i\	.
.	.	4e\	.
.	.	1f#i	.
=213.	=213.	=213.	=213.
1GG	1.G	2.g\	0dd_
.	.	4f\	.
2r	.	1d	.
[2GG/	[2B-\	.	.
=214	=214	=214	=214
4GG/]	4B-\]	2r	0dd]
4AA/	4c\	.	.
2.BB-/	4d\	2.D/	.
.	4e\	.	.
.	1f	.	.
4C/	.	4E/	.
4D\	.	[2F/	.
4E\	.	.	.
=215.	=215.	=215.	=215.
1F	2r	4F/]	[0cc
.	.	4G/	.
.	2.F/	4A/	.
.	.	4B\	.
2r	.	1c	.
.	4G/	.	.
[2F\	4A/	.	.
.	4B\	.	.
=216.	=216.	=216.	=216.
4F\]	1c	2r	0cc]
4G\	.	.	.
4A\	.	2.c\	.
4B\	.	.	.
1c	2r	.	.
.	.	4d\	.
.	2c\	4e\	.
.	.	4f\	.
=217	=217	=217	=217
1.G	4d\	1g	0b
.	4c\	.	.
.	4B\	.	.
.	4A/	.	.
.	1G	[1d	.
4F\	.	.	.
4G\	.	.	.
=218.	=218.	=218.	=218.
1D	2F/	2d\]	[0a
.	2.D/	4c\	.
.	.	4d\	.
2r	.	1A	.
.	4E/	.	.
[2D\	4F/	.	.
.	4G/	.	.
=219.	=219.	=219.	=219.
4D\]	1A	2r	0a]
4E\	.	.	.
4F\	.	2.A/	.
4G\	.	.	.
1A	1r	.	.
.	.	4B\	.
.	.	4c\	.
.	.	4d\	.
=220	=220	=220	=220
1E	2r	1e	[0g
.	2.E/	.	.
2r	.	1B	.
.	4F/	.	.
[2E\	4G/	.	.
.	4A/	.	.
=221.	=221.	=221.	=221.
4E\]	1B	2r	0g]
4F\	.	.	.
4G\	.	2.E/	.
4A\	.	.	.
1B	1E	.	.
.	.	4F/	.
.	.	4G/	.
.	.	4A/	.
=222.	=222.	=222.	=222.
[0E	2r	1B	[0g
.	2.G/	.	.
.	.	2E/	.
.	4A/	.	.
.	4B\	[2G/	.
.	4c\	.	.
=223	=223	=223	=223
0E_	2B\	4G/]	0g]
.	.	4A/	.
.	2G/	4B\	.
.	.	4c\	.
.	2E/	2B\	.
.	[2e\	2G/	.
=224.	=224.	=224.	=224.
0E_	4e\]	2E/	[0g
.	4f\	.	.
.	2g\	2.e\	.
.	2.e\	.	.
.	.	4f\	.
.	.	2g\	.
.	4f\	.	.
=225.	=225.	=225.	=225.
0E_	2g\	2.e\	0g]
.	2.e\	.	.
.	.	4f\	.
.	.	2g\	.
.	4f\	.	.
.	2g\	[2e\	.
=226	=226	=226	=226
0E_	2.e\	4e\]	[0g
.	.	4f\	.
.	.	2g\	.
.	4d\	.	.
.	4c\	2.e\	.
.	4B\	.	.
.	[2c\	.	.
.	.	4f\	.
=227.	=227.	=227.	=227.
0E]	2c\]	2g\	0g]
.	4B\	2.e\	.
.	4A/	.	.
.	1B	.	.
.	.	4d\	.
.	.	2e\	.
=228.	=228.	=228.	=228.
[0AAl	[0cl	2.c\	[0a
.	.	4d\	.
.	.	2e\	.
.	.	[2A/	.
=229	=229	=229	=229
0AA_	0c_	4A/]	0a]
.	.	4G/	.
.	.	4F/	.
.	.	4E/	.
.	.	2.F/	.
.	.	4G/	.
=230.	=230.	=230.	=230.
0AA_	0c_	2E/	[0a
.	.	1F	.
.	.	4E/	.
.	.	4F/	.
=231.	=231.	=231.	=231.
0AA_	0c_	[0El	0a]
=232	=232	=232	=232
0AA]	0c]	0E]	0al
!!LO:LB:i:g=z
=233||	=233||	=233||	=233||
*>F	*>F	*>F	*>F
*clefF4	*clefGv2	*clefGv2	*clefG2
*k[]	*k[]	*k[]	*k[]
*M2/1	*M2/1	*M2/1	*M2/1
*met(C|)	*met(C|)	*met(C|)	*met(C|)
!!section: Hi placuere tibi
!!!OMD: Hi placuere tibi
[0AA	1.A	0r	1r
.	.	.	[1a
.	[2c\	.	.
=234	=234	=234	=234
0AA_	2c\]	1r	2a/]
.	2.A/	.	1cc
.	.	1r	.
.	4B\	.	.
.	[2c\	.	[2a/
=235	=235	=235	=235
0AA_	4c\]	1.A	4a/]
.	4B\	.	4b\
.	1A	.	2.cc\
.	.	.	4b\
.	4G/	[2c\	[2a/
.	4F/	.	.
=236	=236	=236	=236
0AA_	1E	2c\]	2a/]
.	.	2.A/	4g/
.	.	.	4f/
.	1r	.	1e
.	.	4B\	.
.	.	[2c\	.
=237	=237	=237	=237
0AA_	1r	4c\]	2r
.	.	4B\	.
.	.	1A	2.a/
.	1A	.	.
.	.	.	4b\
.	.	4G/	[2cc\
.	.	4F/	.
=238	=238	=238	=238
0AA]	1A	1E	2cc\]
.	.	.	4b\
.	.	.	4a/
.	1A	1C	1cc
=239	=239	=239	=239
[0GG	1B	1G	2r
.	.	.	2.b\
.	1G	1D	.
.	.	.	4cc\
.	.	.	[2dd\
=240	=240	=240	=240
0GG]	0B	1.G	2dd\]
.	.	.	4cc\
.	.	.	4b\
.	.	.	1dd
.	.	4F/	.
.	.	4E/	.
=241	=241	=241	=241
0AA	2.A/	0E	0cc
.	4G/	.	.
.	2E/	.	.
.	[2F/	.	.
=242	=242	=242	=242
[0AA	2F/]	1.A	2r
.	4E/	.	1a
.	4D/	.	.
.	1E	.	.
.	.	2B\	4g/
.	.	.	4f/
=243	=243	=243	=243
0AA]	0A	0c	0e
=244	=244	=244	=244
[0C	1G	2.c\	1e
.	.	4d\	.
.	2.c\	4e\	1r
.	.	4f\	.
.	.	[2e\	.
.	4d\	.	.
=245	=245	=245	=245
0C_	4e\	4e\]	2.c/
.	4f\	4d\	.
.	2.e\	4c\	.
.	.	4B\	4d/
.	.	2c\	4e/
.	4d\	.	4f/
.	4c\	[2g\	[2e/
.	4B\	.	.
=246	=246	=246	=246
0C]	2c\	4g\]	4e/]
.	.	4f\	4d/
.	2.g\	4e\	4c/
.	.	4d\	4B/
.	.	2c\	2c/
.	4f\	.	.
.	4e\	[2e\	[2g/
.	4d\	.	.
=247	=247	=247	=247
[0C	2c\	4e\]	4g/]
.	.	4d\	4f/
.	2.e\	4c\	4e/
.	.	4B\	4d/
.	.	2A/	2c/
.	4d\	.	.
.	4c\	2G/	[2e/
.	4B\	.	.
=248	=248	=248	=248
0C_	2A/	2r	4e/]
.	.	.	4f/
.	2G/	2c\	2g/
.	2r	2G/	1e
.	2c\	[2c\	.
=249	=249	=249	=249
0C]	2G/	4c\]	2r
.	.	4B\	.
.	2.c\	1G	1e
.	4B\	.	.
.	[2G/	4F/	[2g/
.	.	4E/	.
=250	=250	=250	=250
0BB	2G/]	1D	2g/]
.	4F/	.	2a/
.	4E/	.	.
.	1D	1G	1b
=251	=251	=251	=251
1AA	2E/	1A	1cc
.	2F/	.	.
1GG	[1G	2r	1b
.	.	[2D/	.
=252	=252	=252	=252
0AA	2G/]	2D/]	2a/
.	4F/	4C/	1cc
.	4G/	4D/	.
.	2.F/	1C	.
.	.	.	4b\
.	4G/	.	4a/
=253	=253	=253	=253
1GG	1G	1D	1b
1AA	1F	1r	[1a
=254	=254	=254	=254
1BB	0G	[0d	2a/]
.	.	.	4g/
.	.	.	4a/
1GG	.	.	[1g
=255	=255	=255	=255
0D	0A	0d]	2g/]
.	.	.	4f#i/
.	.	.	4g/
.	.	.	2.f#i/
.	.	.	4g/
=256	=256	=256	=256
[0GG	[0G	1B	0g
.	.	2c\	.
.	.	[2d\	.
=257	=257	=257	=257
0GG]	0G]	4d\]	1r
.	.	4c\	.
.	.	4B\	.
.	.	4A/	.
.	.	1B	2r
.	.	.	[2dd\
=258	=258	=258	=258
0r	0r	1A	2dd\]
.	.	.	2.cc\
.	.	2B\	.
.	.	.	4b\
.	.	[2c\	4a/
.	.	.	4g/
=259	=259	=259	=259
0r	0r	4c\]	2a/
.	.	4B\	.
.	.	4A/	1g
.	.	4G/	.
.	.	1A	.
.	.	.	2f#i/
=260	=260	=260	=260
[0GG	1B	[0G	0g
.	2c\	.	.
.	[2d\	.	.
=261	=261	=261	=261
0GG]	4d\]	0G]	1r
.	4c\	.	.
.	4B\	.	.
.	4A/	.	.
.	1B	.	1d
=262	=262	=262	=262
[0AA	1A	1E	1c
.	2B\	1C	1f
.	[2c\	.	.
=263	=263	=263	=263
0AA]	4c\]	[0c	0e
.	4B\	.	.
.	4A/	.	.
.	4G/	.	.
.	1A	.	.
=264	=264	=264	=264
[0C	[0G	0c_	1e
.	.	.	2f/
.	.	.	[2g/
=265	=265	=265	=265
0C]	0G]	0c]	4g/]
.	.	.	4f/
.	.	.	4e/
.	.	.	4d/
.	.	.	1e
=266	=266	=266	=266
1BB	0r	0r	1d
2C/	.	.	2e/
[2D\	.	.	[2f/
=267	=267	=267	=267
4D\]	0r	0r	4f/]
4C/	.	.	4e/
4BB/	.	.	4d/
4AA/	.	.	4c/
1BB	.	.	1d
=268	=268	=268	=268
1C	0r	1r	2c/
.	.	.	2e/
2D\	.	1r	2f/
[2E\	.	.	[2g/
=269	=269	=269	=269
4E\]	0G	0c	4g/]
4D\	.	.	4f/
4C/	.	.	4e/
4BB/	.	.	4d/
1C	.	.	1e
=270	=270	=270	=270
[0D	0F	2A/	1d
.	.	2.d\	.
.	.	.	2r
.	.	4e\	.
.	.	[2f\	[2a/
=271	=271	=271	=271
0D]	0r	4f\]	4a/]
.	.	4e\	4g/
.	.	4d\	4f/
.	.	4c\	4e/
.	.	1B	1d
=272	=272	=272	=272
[0C	2r	0r	1.e
.	2.c\	.	.
.	4d\	.	.
.	[2e\	.	[2g/
=273	=273	=273	=273
0C]	4e\]	0r	4g/]
.	4d\	.	4f/
.	4c\	.	4e/
.	4B\	.	4d/
.	1A	.	1c
=274	=274	=274	=274
[0BB	0r	2r	0r
.	.	2.B\	.
.	.	4c\	.
.	.	[2d\	.
=275	=275	=275	=275
0BB]	0r	4d\]	0r
.	.	4c\	.
.	.	4B\	.
.	.	4A/	.
.	.	1G	.
=276	=276	=276	=276
[0AA	2r	0r	[0cc
.	2.A/	.	.
.	4B\	.	.
.	[2c\	.	.
=277	=277	=277	=277
0AA]	4c\]	0r	0cc]
.	4B\	.	.
.	4A/	.	.
.	4G/	.	.
.	2.F#i/	.	.
.	4E/	.	.
=278	=278	=278	=278
[0GG	1G	2r	[0b
.	.	2.d\	.
.	2r	.	.
.	.	4c\	.
.	[2d\	4B\	.
.	.	4A/	.
=279	=279	=279	=279
0GG_	4d\]	2.G/	0b_
.	4c\	.	.
.	4B\	.	.
.	4A/	8F/L	.
.	.	8E/J	.
.	2.G/	2D/	.
.	.	[2G/	.
.	8F/L	.	.
.	8E/J	.	.
=280	=280	=280	=280
0GG_	2D/	4G/]	0b_
.	.	4A/	.
.	4G/	2B\	.
.	4A/	.	.
.	2B\	2G/	.
.	2G/	[2B\	.
=281	=281	=281	=281
0GG_	2.B\	4B\]	0b_
.	.	4c\	.
.	.	2d\	.
.	4c\	.	.
.	2d\	2B\	.
.	2B\	[2d\	.
=282	=282	=282	=282
0GG_	2.d\	4d\]	0b_
.	.	4c\	.
.	.	4B\	.
.	4c\	4A/	.
.	4B\	1d	.
.	4A/	.	.
.	[2B\	.	.
=283	=283	=283	=283
0GG]	4B\]	0d	0b]
.	4A/	.	.
.	4G/	.	.
.	4F/	.	.
.	1G	.	.
=284	=284	=284	=284
0AAl	0El	0cl	0al
!!LO:LB:i:g=z
=285||	=285||	=285||	=285||
*>G	*>G	*>G	*>G
*clefF4	*clefGv2	*clefGv2	*clefG2
*k[]	*k[]	*k[]	*k[]
*M2/1	*M2/1	*M2/1	*M2/1
*met(C|)	*met(C|)	*met(C|)	*met(C|)
!!section: Gloria, laus et honor
!!!OMD: Gloria, laus et honor
0r	0r	0d	0r
=286	=286	=286	=286
0E	0r	0c	0r
=287	=287	=287	=287
0D	0r	1d	0a
.	.	1f	.
=288	=288	=288	=288
0E	0r	1.e	0g
.	.	4d\	.
.	.	4c\	.
=289	=289	=289	=289
1F	0A	2c\	1.a
.	.	1f	.
1D	.	.	.
.	.	4e\	2b\
.	.	4d\	.
=290	=290	=290	=290
0E	0G	2c\	2cc\
.	.	2.d\	1b
.	.	4c#i\	.
.	.	4c#i\	4a/
.	.	4B\	4g/
=291	=291	=291	=291
[0D	0A	[0d	1.f
.	.	.	2g/
=292	=292	=292	=292
0D]	0G	0d]	2a/
.	.	.	1a
.	.	.	4g/
.	.	.	4f/
=293	=293	=293	=293
[0C	[0c	[0G	0e
=294	=294	=294	=294
0C]	0c]	0G]	1r
.	.	.	1e
=295	=295	=295	=295
[0F	[0c	1F	1.f
.	.	[1f	.
.	.	.	[2a/
=296	=296	=296	=296
0F]	0c]	2f\]	4a/]
.	.	.	4b\
.	.	2e\	2cc\
.	.	1f	2a/
.	.	.	[2cc\
=297	=297	=297	=297
0C	1.c	0e	2cc\]
.	.	.	4b\
.	.	.	4a/
.	.	.	1g
.	2B\	.	.
=298	=298	=298	=298
1D	1A	1d	1f
1E	1G	1c	[1g
=299	=299	=299	=299
0D	0A	0d	2g/]
.	.	.	4f#i/
.	.	.	4e/
.	.	.	1f#i
=300	=300	=300	=300
1.GG	0G	1.d	1g
.	.	.	2r
[2C/	.	[2e\	2g/
=301	=301	=301	=301
2C/]	1r	2e\]	1cc
2D\	.	2f\	.
1E	1G	4g\	1b
.	.	4f\	.
.	.	4e\	.
.	.	4d\	.
=302	=302	=302	=302
1.AA	[0A	1.c	1a
.	.	.	2r
[2D\	.	[2f\	2a/
=303	=303	=303	=303
2D\]	0A]	2f\]	1dd
2E\	.	2g\	.
1F	.	2a\	1cc
.	.	4g\	.
.	.	4f\	.
=304	=304	=304	=304
1.C	0c	1.e	2.cc\
.	.	.	4b\
.	.	.	2g/
[2F\	.	[2f\	[2a/
=305	=305	=305	=305
2F\]	0c	2f\]	4a/]
.	.	.	4g/
2G\	.	4e\	1g
.	.	4d\	.
1A	.	1c	.
.	.	.	2f#i/
=306	=306	=306	=306
0G	0B	2r	1g
.	.	2.d\	.
.	.	.	1dd
.	.	4e\	.
.	.	[2g\	.
=307	=307	=307	=307
0A	0c	2g\]	1cc
.	.	4f\	.
.	.	4e\	.
.	.	1f	1a
=308	=308	=308	=308
1G	[0d	1g	1b
1D	.	1f	1a
=309	=309	=309	=309
2G\	0d_	1g	2b\
1B	.	.	1dd
.	.	2f\	.
[2G\	.	[2g\	[2b\
=310	=310	=310	=310
4G\]	0d]	2g\]	4b\]
4A\	.	.	4cc\
2.B\	.	2.f\	2.dd\
4A\	.	4g\	4cc\
[2F\	.	[2a\	[2a/
=311	=311	=311	=311
4F\]	[0c	4a\]	4a/]
4G\	.	4g\	4b\
2A\	.	2e\	2cc\
2F\	.	2f\	2a/
[2A\	.	[2e\	[2cc\
=312	=312	=312	=312
4A\]	1c]	4e\]	4cc\]
4G\	.	4f\	4b\
2.E\	.	2.g\	2.g/
.	[1B	.	.
4F\	.	4f\	4a/
2G\	.	2d\	2b\
=313	=313	=313	=313
2E\	0B]	2e\	2g/
2.G\	.	2.d\	2.b\
4F\	.	4e\	4a/
[2D\	.	[2f\	[2f/
=314	=314	=314	=314
4D\]	[0A	4f\]	4f/]
4E\	.	4e\	4g/
2F\	.	2c\	2a/
2D\	.	2d\	2f/
[2F\	.	[2c\	[2a/
=315	=315	=315	=315
4F\]	1A]	4c\]	4a/]
4E\	.	4d\	4g/
2.C/	.	2.e\	2.e/
.	[1G	.	.
4D\	.	4d\	4f/
2E\	.	2B\	2g/
=316	=316	=316	=316
2C/	0G]	2c\	2.e/
1E	.	1B	.
.	.	.	4f/
.	.	.	2g/
[2C/	.	[2c\	2e/
=317	=317	=317	=317
4C/]	[0G	2c\]	1.g
4D\	.	.	.
1E	.	1B	.
[2C/	.	2c\	[2e/
=318	=318	=318	=318
2C/]	0G]	2g\	2e/]
2D\	.	2f\	4d/
.	.	.	4c/
1E	.	1e	1B
=319	=319	=319	=319
1AA	0A	0c	[0Al
1AA	.	.	.
=320	=320	=320	=320
[0D	[0F	[0d	0A_
=321	=321	=321	=321
0D]	0F]	0d]	0A_
=322	=322	=322	=322
0AAl	0El	0cl	0A]
==	==	==	==
*-	*-	*-	*-
!!!RDF**kern: l=long note in original notation
!!!RDF**kern: i=editorial accidental
!!!ENC:	Megan K. Eagen 25/08/2012
!!!END:	2014/02/22/
!!!EED:	Jesse Rodin
!!!EEV:	2014/03/09/
!!attribution-level@Jos: 4 (questionable)
!!!ONB:	Translated from MusicXML and edited on 2014/03/09/ by Craig Sapp
!!muse2ps: C^@{COA}?\n@{SCT}^i2I150v85,85,85,150c190
